libs/ui/packages/crypto-icons/src/svg/PRL.svg

<svg width="24" height="24" viewBox="0 0 24 24" fill="none">
<path fill-rule="evenodd" clip-rule="evenodd" d="M18.2107 16.0251C18.2737 16.6709 18.072 17.3084 17.4472 17.7224C17.148 17.9211 16.8142 17.9999 16.4557 17.9999C13.4857 17.9984 10.5157 17.9991 7.54573 17.9984C7.4807 17.9984 7.41568 17.9966 7.35073 17.9931C6.69973 17.9579 6.08474 17.4861 5.87474 16.8704C5.78174 16.5981 5.76749 16.3191 5.77874 16.0251H7.58623C7.76023 16.0244 7.87574 15.8976 7.83674 15.7394C7.81634 15.678 7.78042 15.623 7.73249 15.5796C6.99524 14.8431 6.25573 14.1096 5.51699 13.3746L4.84049 12.7011C4.58624 12.4499 4.46399 12.1461 4.50899 11.7921C4.53149 11.6181 4.58774 11.4471 4.64399 11.2791C4.95969 10.3275 5.46112 9.44803 6.11924 8.69164C7.05145 7.6068 8.26738 6.80302 9.63073 6.37039C10.5183 6.07989 11.4524 5.95854 12.3847 6.01264C14.5867 6.14464 16.4205 7.04014 17.874 8.69089C18.6176 9.53506 19.1588 10.5378 19.4565 11.6226C19.569 12.0269 19.4625 12.3906 19.1632 12.6884C18.6007 13.2494 18.0337 13.8059 17.469 14.3646C17.0542 14.7749 16.6402 15.1866 16.2262 15.5984C16.0897 15.7334 16.1032 15.9134 16.2592 15.9936C16.3042 16.0161 16.3605 16.0236 16.4115 16.0236C16.9815 16.0259 17.5522 16.0251 18.123 16.0251H18.2107ZM6.33149 16.4301C6.33974 16.6716 6.40424 16.8861 6.54524 17.0736C6.77924 17.3856 7.09499 17.5326 7.48649 17.5319H16.5075C16.5427 17.5319 16.578 17.5304 16.6125 17.5281C16.7786 17.5218 16.941 17.4772 17.0871 17.3979C17.2332 17.3185 17.359 17.2065 17.4547 17.0706C17.5942 16.8831 17.6595 16.6686 17.6632 16.4309L6.33149 16.4301ZM14.0325 10.6199C14.0542 10.6341 14.07 10.6424 14.0827 10.6521C14.8237 11.2041 15.2932 11.9271 15.4717 12.8324C15.5692 13.3244 15.5557 13.8149 15.4402 14.3031C15.335 14.7467 15.1439 15.1653 14.8777 15.5354C14.8527 15.5668 14.8351 15.6036 14.8262 15.6428C14.8174 15.682 14.8176 15.7227 14.8267 15.7619C14.8785 15.9659 15.1102 16.0319 15.2632 15.8826C15.4882 15.6644 15.708 15.4416 15.9307 15.2211C16.8277 14.3286 17.7247 13.4369 18.6225 12.5459C18.8175 12.3524 18.903 12.1214 18.855 11.8514C18.8332 11.7344 18.7912 11.6204 18.7515 11.5079C18.4602 10.6626 18.0323 9.87087 17.4847 9.16414C17.0658 8.62177 16.5678 8.14545 16.0072 7.75114C15.9787 7.73061 15.9589 7.70009 15.9517 7.66564C15.9435 7.58609 15.9167 7.50957 15.8736 7.44224C15.8304 7.3749 15.7721 7.31862 15.7032 7.27793C15.6344 7.23723 15.5569 7.21324 15.4771 7.2079C15.3973 7.20255 15.3174 7.21599 15.2437 7.24714C15.2132 7.25924 15.1792 7.25951 15.1485 7.24789C14.3579 6.87158 13.5024 6.65058 12.6285 6.59689C11.9338 6.54469 11.2354 6.58403 10.551 6.71389C9.97916 6.82283 9.42398 7.00588 8.89948 7.25839C8.87948 7.26977 8.85687 7.27575 8.83386 7.27575C8.81085 7.27575 8.78824 7.26977 8.76823 7.25839C8.69319 7.22143 8.61006 7.2039 8.52648 7.20743C8.4429 7.21095 8.36154 7.23541 8.28988 7.27856C8.21821 7.32171 8.15853 7.38217 8.1163 7.45439C8.07408 7.52661 8.05068 7.60827 8.04823 7.69189C8.04823 7.73689 8.03173 7.76314 7.99723 7.79014C7.76774 7.97239 7.52924 8.14564 7.31474 8.34439C6.30674 9.27814 5.62124 10.4174 5.18099 11.7096C5.06999 12.0366 5.14349 12.3171 5.38724 12.5594L8.05723 15.2136C8.28073 15.4364 8.50348 15.6591 8.72923 15.8804C8.85898 16.0079 9.05473 15.9854 9.13948 15.8346C9.19723 15.7304 9.18298 15.6276 9.11473 15.5316C8.75588 15.0349 8.53536 14.4518 8.47573 13.8419C8.42348 13.3405 8.48237 12.8337 8.64823 12.3576C8.68573 12.2489 8.73223 12.1424 8.77648 12.0299L9.83548 12.6524C9.61568 13.1841 9.5999 13.7781 9.79119 14.3207C9.98247 14.8633 10.3673 15.3161 10.872 15.5924C11.3484 15.8533 11.9006 15.9408 12.4344 15.8398C12.9681 15.7389 13.4503 15.4558 13.7985 15.0389C14.1435 14.6286 14.3265 14.1524 14.337 13.6161C14.352 12.8166 14.0212 12.1791 13.3995 11.6826L14.0325 10.6199ZM17.5312 12.8999C17.5117 12.7754 17.4937 12.6606 17.4742 12.5459C17.402 12.1223 17.2781 11.7092 17.1052 11.3159C17.0865 11.2709 17.082 11.2364 17.1045 11.1899C17.1341 11.1275 17.1504 11.0596 17.1523 10.9906C17.1542 10.9215 17.1418 10.8528 17.1158 10.7889C17.0898 10.7249 17.0507 10.667 17.0011 10.619C16.9515 10.5709 16.8925 10.5337 16.8277 10.5096C16.7642 10.4857 16.6966 10.4747 16.6287 10.4773C16.5609 10.4799 16.4943 10.4961 16.4328 10.5249C16.3714 10.5537 16.3163 10.5945 16.2709 10.645C16.2255 10.6954 16.1907 10.7545 16.1685 10.8186C16.1464 10.8828 16.1377 10.9508 16.143 11.0184C16.1483 11.086 16.1675 11.1518 16.1993 11.2117C16.231 11.2717 16.2748 11.3244 16.3278 11.3667C16.3808 11.409 16.442 11.44 16.5075 11.4576C16.543 11.4644 16.5761 11.4806 16.6033 11.5044C16.6304 11.5283 16.6507 11.559 16.662 11.5934C16.89 12.1521 17.0167 12.7311 17.0347 13.3334C17.0362 13.3693 17.0245 13.4045 17.0017 13.4324C16.659 13.7774 16.3132 14.1194 15.969 14.4621C15.957 14.4734 15.9427 14.4824 15.9375 14.4876C16.266 12.8601 15.8662 11.4494 14.559 10.3874C13.2007 9.28489 11.6872 9.20014 10.098 9.91714L9.61273 9.07939C9.78598 9.00214 9.95248 8.92189 10.1227 8.85139C10.5612 8.67631 11.0219 8.56273 11.4915 8.51389C11.5522 8.50714 11.5965 8.51689 11.6437 8.56489C11.6902 8.61274 11.7458 8.65072 11.8073 8.67653C11.8688 8.70235 11.9348 8.71548 12.0015 8.71513C12.0682 8.71478 12.1341 8.70096 12.1954 8.67449C12.2566 8.64803 12.3118 8.60948 12.3577 8.56114C12.3736 8.54266 12.3939 8.52855 12.4167 8.52014C12.4396 8.51174 12.4642 8.50933 12.4882 8.51314C13.638 8.63764 14.6355 9.08914 15.477 9.87889C15.5445 9.94264 15.6082 10.0094 15.6735 10.0754C15.7897 10.1924 15.918 10.1954 16.0365 10.0814L16.8247 9.31864L16.8982 9.24889C16.9927 9.36889 17.088 9.48439 17.1765 9.60439C17.6887 10.2968 18.0816 11.07 18.339 11.8919C18.3569 11.9402 18.36 11.9928 18.3479 12.043C18.3357 12.0931 18.3088 12.1384 18.2707 12.1731L17.5777 12.8624C17.5657 12.8736 17.5515 12.8826 17.5312 12.8999ZM16.5817 8.91739L15.9082 9.56914C15.888 9.55189 15.8692 9.53614 15.852 9.51964C15.1508 8.84494 14.283 8.36869 13.3372 8.13964C13.0725 8.07514 12.7987 8.04514 12.5295 8.00164C12.4822 7.99414 12.45 7.98439 12.4207 7.93939C12.3743 7.86891 12.3112 7.81108 12.2368 7.77112C12.1625 7.73115 12.0795 7.7103 11.9951 7.71045C11.9107 7.7106 11.8277 7.73174 11.7535 7.77197C11.6794 7.8122 11.6164 7.87025 11.5702 7.94089C11.5477 7.97117 11.5144 7.9916 11.4772 7.99789C9.74173 8.18839 8.37973 9.00139 7.38224 10.4219C7.37107 10.4393 7.35608 10.454 7.33841 10.4648C7.32074 10.4756 7.30084 10.4822 7.28023 10.4841C6.93073 10.5411 6.75298 10.8816 6.89773 11.2041C6.9091 11.2331 6.9091 11.2652 6.89773 11.2941C6.68787 11.7724 6.54769 12.2783 6.48149 12.7964C6.47699 12.8286 6.47023 12.8601 6.46273 12.9044L6.39824 12.8444C6.18374 12.6306 5.97073 12.4146 5.75324 12.2039C5.65274 12.1064 5.61974 12.0029 5.66699 11.8664C6.17174 10.4189 6.97423 9.17989 8.22448 8.25514C8.23873 8.24464 8.25373 8.23564 8.26723 8.22439C8.31223 8.18464 8.35348 8.17339 8.42023 8.19139C8.48746 8.21015 8.55786 8.2147 8.62695 8.20475C8.69603 8.1948 8.76228 8.17056 8.82148 8.13359C8.88068 8.09661 8.93153 8.04771 8.97079 7.99C9.01004 7.93229 9.03684 7.86703 9.04948 7.79839C9.05326 7.7837 9.05991 7.76991 9.06905 7.75781C9.07819 7.74571 9.08964 7.73554 9.10273 7.72789C9.42663 7.56814 9.76456 7.4386 10.1122 7.34089C10.9335 7.10764 11.772 7.04689 12.6195 7.10764C13.4001 7.15717 14.1646 7.35254 14.8732 7.68364C14.9182 7.70464 14.9407 7.72864 14.9482 7.78114C14.9591 7.857 14.9871 7.92937 15.0302 7.99272C15.0734 8.05607 15.1304 8.10872 15.197 8.14664C15.2636 8.18457 15.3379 8.20676 15.4144 8.21153C15.4909 8.21629 15.5675 8.20351 15.6382 8.17414C15.6622 8.16514 15.7005 8.16439 15.7192 8.17714C16.026 8.38864 16.308 8.62864 16.5682 8.89339C16.5735 8.89864 16.5757 8.90614 16.5817 8.91739ZM13.8337 13.5524C13.839 14.5506 13.0162 15.3734 12.0067 15.3794C11.5214 15.3808 11.0552 15.1901 10.7101 14.8489C10.365 14.5076 10.1689 14.0437 10.1647 13.5584C10.1602 12.5586 10.9815 11.7381 11.9932 11.7329C12.4785 11.7301 12.9449 11.9201 13.2901 12.2612C13.6352 12.6022 13.8308 13.0664 13.8337 13.5516V13.5524ZM8.06023 14.5004L7.58623 14.0241C7.39123 13.8291 7.19473 13.6371 7.00124 13.4406C6.97609 13.4151 6.96115 13.3812 6.95924 13.3454C6.97716 12.7251 7.11149 12.1138 7.35524 11.5431C7.36147 11.5246 7.37268 11.5082 7.38762 11.4956C7.40257 11.4831 7.42068 11.4749 7.43999 11.4719C7.77673 11.3931 7.93348 11.0991 7.81423 10.7781C7.80673 10.7556 7.80673 10.7219 7.81798 10.7031C8.18654 10.158 8.65969 9.69147 9.20998 9.33064C9.21223 9.32914 9.21448 9.32914 9.22498 9.32614L9.42373 9.66514L9.84073 10.3851C9.92473 10.5321 10.0342 10.5644 10.179 10.4766C10.5573 10.2472 10.9766 10.0934 11.4135 10.0236C12.1647 9.89655 12.9368 10.0157 13.6147 10.3634C13.6215 10.3671 13.6267 10.3724 13.6402 10.3829L13.011 11.4381C11.8222 10.9919 10.8397 11.2581 10.0462 12.2459L8.99098 11.6256C9.08548 11.4989 9.17548 11.3766 9.26774 11.2566C9.30523 11.2071 9.34873 11.1621 9.39073 11.1156C9.45523 11.0436 9.45523 11.0031 9.38923 10.9356C9.33117 10.8767 9.27267 10.8182 9.21373 10.7601C9.13423 10.6821 9.09523 10.6821 9.02024 10.7631C8.70024 11.1056 8.44329 11.502 8.26123 11.9339C8.00315 12.539 7.90054 13.199 7.96273 13.8539C7.98223 14.0639 8.02498 14.2716 8.06023 14.5004ZM11.9962 8.49289C11.9218 8.49135 11.8508 8.46105 11.7983 8.40833C11.7457 8.35561 11.7156 8.28458 11.7142 8.21014C11.7167 8.13576 11.7477 8.06518 11.8007 8.01298C11.8538 7.96078 11.9248 7.93095 11.9992 7.92964C12.0737 7.93138 12.1445 7.96187 12.197 8.01473C12.2494 8.06759 12.2793 8.1387 12.2805 8.21314C12.2789 8.28769 12.2484 8.3587 12.1953 8.41108C12.1422 8.46345 12.0708 8.49307 11.9962 8.49364V8.49289ZM8.54624 7.43239C8.58328 7.4314 8.62016 7.43777 8.65473 7.45115C8.68929 7.46453 8.72086 7.48464 8.74758 7.51032C8.77431 7.536 8.79566 7.56673 8.81041 7.60073C8.82516 7.63474 8.833 7.67133 8.83348 7.70839C8.83348 7.78358 8.80362 7.85569 8.75045 7.90886C8.69728 7.96202 8.62517 7.99189 8.54998 7.99189C8.4748 7.99189 8.40269 7.96202 8.34952 7.90886C8.29635 7.85569 8.26648 7.78358 8.26648 7.70839C8.26728 7.63479 8.29712 7.56448 8.34952 7.51278C8.40192 7.46108 8.47263 7.43219 8.54624 7.43239ZM16.647 11.2574C16.5755 11.2544 16.5079 11.2241 16.4581 11.1727C16.4084 11.1213 16.3803 11.0528 16.3796 10.9813C16.3789 10.9097 16.4057 10.8407 16.4545 10.7884C16.5033 10.736 16.5703 10.7045 16.6417 10.7001C16.6783 10.6998 16.7146 10.7067 16.7486 10.7203C16.7825 10.734 16.8134 10.7543 16.8395 10.7799C16.8656 10.8055 16.8864 10.836 16.9008 10.8697C16.9151 10.9034 16.9226 10.9396 16.923 10.9761C16.9233 11.0127 16.9165 11.049 16.9028 11.083C16.8891 11.1169 16.8689 11.1478 16.8432 11.1739C16.8176 11.2 16.7871 11.2209 16.7534 11.2352C16.7197 11.2495 16.6836 11.257 16.647 11.2574ZM15.4447 7.43239C15.6045 7.43239 15.726 7.55239 15.7252 7.71139C15.725 7.7848 15.6958 7.85515 15.644 7.90713C15.5922 7.95911 15.5219 7.9885 15.4485 7.98889C15.4115 7.98949 15.3748 7.98277 15.3404 7.96913C15.3061 7.95549 15.2748 7.93519 15.2483 7.9094C15.2218 7.88361 15.2007 7.85284 15.1861 7.81886C15.1716 7.78488 15.1639 7.74836 15.1635 7.71139C15.163 7.67439 15.1699 7.63766 15.1839 7.60339C15.1979 7.56912 15.2186 7.53801 15.2448 7.51191C15.2711 7.48581 15.3023 7.46525 15.3366 7.45146C15.371 7.43768 15.4077 7.43093 15.4447 7.43164V7.43239ZM7.63123 10.9784C7.63144 11.0153 7.62426 11.052 7.61013 11.0861C7.59599 11.1202 7.57518 11.1512 7.54891 11.1772C7.52264 11.2032 7.49145 11.2237 7.45716 11.2374C7.42287 11.2512 7.38618 11.258 7.34923 11.2574C7.31223 11.2579 7.2755 11.251 7.24123 11.237C7.20696 11.223 7.17585 11.2023 7.14975 11.1761C7.12365 11.1498 7.1031 11.1186 7.08931 11.0843C7.07552 11.0499 7.06878 11.0131 7.06948 10.9761C7.06988 10.9027 7.0994 10.8324 7.15156 10.7806C7.20372 10.7289 7.27427 10.6999 7.34773 10.7001C7.38471 10.6994 7.42146 10.7061 7.45583 10.7198C7.4902 10.7335 7.52149 10.7539 7.54789 10.7798C7.57429 10.8057 7.59525 10.8366 7.60956 10.8707C7.62387 10.9048 7.63124 10.9414 7.63123 10.9784Z" fill="#1061E3"/>
</svg>

<svg width="24" height="24" viewBox="0 0 24 24" fill="none"><path fill="#1061e3" fill-rule="evenodd" d="M18.21 16.025c.064.646-.138 1.283-.763 1.697-.299.2-.633.278-.991.278l-8.91-.002q-.098 0-.195-.005a1.71 1.71 0 0 1-1.476-1.123c-.093-.272-.108-.55-.096-.845h1.807c.174 0 .29-.127.25-.286a.4.4 0 0 0-.104-.16q-1.106-1.104-2.215-2.204L4.84 12.7c-.254-.251-.376-.555-.331-.909.022-.174.079-.345.135-.513a7.6 7.6 0 0 1 1.475-2.587A7.7 7.7 0 0 1 9.631 6.37a7.5 7.5 0 0 1 2.754-.357c2.202.132 4.036 1.027 5.489 2.678a7.4 7.4 0 0 1 1.582 2.932c.113.404.006.768-.293 1.065-.562.561-1.13 1.118-1.694 1.677l-1.243 1.233c-.136.135-.123.315.033.396a.35.35 0 0 0 .152.03q.855.002 1.712.001zm-11.879.405c.009.242.073.456.214.644.234.312.55.459.941.458h9.022q.053 0 .105-.004a1.08 1.08 0 0 0 .842-.457 1.07 1.07 0 0 0 .208-.64zm7.702-5.81.05.032c.74.552 1.21 1.275 1.389 2.18q.144.739-.032 1.471a3.5 3.5 0 0 1-.562 1.232.27.27 0 0 0-.051.227c.052.204.283.27.436.12q.336-.328.668-.66l2.691-2.676a.75.75 0 0 0 .233-.695c-.022-.117-.064-.23-.104-.343a8.2 8.2 0 0 0-1.266-2.344 6.8 6.8 0 0 0-1.478-1.413.14.14 0 0 1-.055-.085.512.512 0 0 0-.708-.419.13.13 0 0 1-.095 0 6.8 6.8 0 0 0-2.52-.65 8 8 0 0 0-2.078.117 6.7 6.7 0 0 0-1.652.544.13.13 0 0 1-.13 0 .5.5 0 0 0-.72.434c0 .045-.017.071-.052.098-.23.182-.468.356-.682.554-1.008.934-1.694 2.073-2.134 3.366-.111.327-.038.607.206.85l2.67 2.654q.334.334.672.666c.13.128.326.105.41-.045.058-.105.044-.207-.024-.303a3.46 3.46 0 0 1-.64-1.69 3.4 3.4 0 0 1 .173-1.484c.038-.11.084-.216.128-.328l1.06.622a2.335 2.335 0 0 0 1.036 2.94 2.345 2.345 0 0 0 2.927-.553q.52-.617.538-1.423c.015-.8-.316-1.437-.937-1.933zm3.498 2.28c-.02-.125-.037-.24-.057-.354a5.3 5.3 0 0 0-.369-1.23c-.018-.045-.023-.08 0-.126a.497.497 0 0 0-.277-.68.51.51 0 0 0-.66.309.495.495 0 0 0 .34.639.2.2 0 0 1 .154.135 5 5 0 0 1 .373 1.74.15.15 0 0 1-.033.1l-1.033 1.03-.031.025c.328-1.628-.072-3.039-1.379-4.1-1.358-1.103-2.872-1.188-4.461-.47l-.485-.839c.173-.077.34-.157.51-.228a5 5 0 0 1 1.369-.337.17.17 0 0 1 .152.05.495.495 0 0 0 .714-.003.14.14 0 0 1 .13-.048 5.05 5.05 0 0 1 2.989 1.366q.1.097.197.196c.116.117.244.12.363.006l.788-.762.073-.07c.095.12.19.235.279.355a7.7 7.7 0 0 1 1.162 2.288.26.26 0 0 1-.068.281l-.693.69zm-.95-3.983-.673.652q-.03-.025-.056-.05a5.5 5.5 0 0 0-2.515-1.38c-.264-.064-.538-.094-.807-.137-.048-.008-.08-.018-.11-.063a.508.508 0 0 0-.85.002.15.15 0 0 1-.093.057C9.742 8.188 8.38 9 7.382 10.422a.14.14 0 0 1-.102.062.5.5 0 0 0-.382.72.12.12 0 0 1 0 .09c-.21.478-.35.984-.417 1.502-.004.033-.01.064-.018.108l-.065-.06c-.214-.213-.427-.43-.645-.64-.1-.098-.133-.201-.086-.338.505-1.447 1.307-2.686 2.557-3.61q.023-.015.043-.032c.045-.04.086-.05.153-.033a.503.503 0 0 0 .63-.393.12.12 0 0 1 .053-.07q.487-.24 1.01-.387c.82-.233 1.659-.294 2.507-.233a6.3 6.3 0 0 1 2.253.576c.045.02.068.045.075.097a.503.503 0 0 0 .69.393c.024-.009.063-.01.081.003q.46.319.85.716.006.008.013.024m-2.747 4.635c.005.999-.818 1.821-1.827 1.827a1.837 1.837 0 0 1-1.842-1.82c-.005-1 .817-1.82 1.828-1.826a1.83 1.83 0 0 1 1.84 1.819M8.06 14.5l-.474-.476q-.293-.29-.585-.583a.15.15 0 0 1-.042-.096 5 5 0 0 1 .396-1.802.11.11 0 0 1 .085-.071c.337-.079.493-.373.374-.694-.007-.022-.007-.056.004-.075A5 5 0 0 1 9.21 9.331c.002-.002.004-.002.015-.005l.199.34.417.72c.084.146.193.178.338.09a3.4 3.4 0 0 1 1.235-.452 3.53 3.53 0 0 1 2.2.34q.009.004.026.019l-.629 1.055c-1.189-.446-2.171-.18-2.965.808l-1.055-.62q.14-.19.277-.37.057-.072.123-.14c.064-.072.064-.113-.002-.18l-.175-.176c-.08-.078-.119-.078-.194.003-.32.343-.577.739-.759 1.17a3.94 3.94 0 0 0-.298 1.92c.02.21.062.419.097.647m3.936-6.007a.29.29 0 0 1-.282-.283.29.29 0 0 1 .285-.28.29.29 0 0 1 .281.283.287.287 0 0 1-.284.28m-3.45-1.06a.28.28 0 0 1 .287.275.283.283 0 1 1-.567 0 .28.28 0 0 1 .28-.276m8.101 3.824a.28.28 0 0 1-.005-.557.28.28 0 0 1 .259.17.28.28 0 0 1-.148.365.3.3 0 0 1-.106.022m-1.202-3.825c.16 0 .281.12.28.28a.278.278 0 0 1-.385.257.28.28 0 0 1-.095-.457.28.28 0 0 1 .2-.08M7.63 10.978a.28.28 0 0 1-.282.28.276.276 0 0 1-.28-.282.28.28 0 0 1 .279-.276.28.28 0 0 1 .283.278" clip-rule="evenodd"/></svg>
